**kern	**kern
*part1	*part1
*staff2	*staff1
*I"Piano	*
*clefF4	*clefG2
*k[b-e-a-]	*k[b-e-a-]
=1	=1
2AA- 2A-	8cL 8e-
.	8a-
.	8cc
.	8a-J
=	=
2BB- 2F	8B-L 8d
.	8f
.	8a-
.	8fJ
=	=
2E-	8B-L
.	8e-
.	8g
.	8e-J
=	=
4G	8B-L
.	8e-
4E-	8g
.	8e-J
=	=
2BB-	4r
.	4A- 4d 4f
=	=
2r	4A- 4d 4f
.	4A- 4d 4f
=	=
2E-	4r
.	4G 4B- 4e-
=	=
2r	4G 4B- 4e-
.	4G 4B- 4e-
=	=
*-	*-
!!!system-decoration: {(s1,s2)}
